X:1
T: Tomgraney Castle 
T:Tomgraney Castle Hornpipe
N:from the playing of fiddler Andrew Davey (b. 1928, Cloonagh, Mullaghroe, Keash)
B:Flaherty - Trip to Sligo (1990, p. 113)
M:C|
L:1/8
R:Hornpipe
K:Emin
(3B,CD|E2 EF EDB,D|GFGB ABGA|Bdgf edBA|GEFE D2 (3B,CD|
E2 EF EDB,D |GFGB ABGA|(3Bcd gf edBA|G2E2E2:|
|:(3Bcd|efed BcBA|GFGB d2 (3Bcd|efed BcBA|GEFE D2 (3B,CD|
E2 EF EDB,D|GFGB A2 GA|(3Bcd gf edBA|G2E2E2:|]
